Newaita/actions/symbolic/mail-mark-read-symbolic.svg

<svg height="16" viewBox="0 0 16 16" width="16" xmlns="http://www.w3.org/2000/svg"><path d="m1.984375 2.109375c-.734375 0-1.324219.589844-1.324219 1.324219v9.261718c0 .730469.589844 1.320313 1.324219 1.320313h11.90625c.734375 0 1.324219-.589844 1.324219-1.320313v-9.261718c0-.734375-.589844-1.324219-1.324219-1.324219zm11.933594.660156c.273437.007813.511719.179688.601562.4375.089844.253907.015625.539063-.191406.71875l-4.300781 3.824219 4.339844 4.488281c.164062.167969.230468.410157.164062.640625-.0625.230469-.246094.40625-.476562.460938-.230469.058594-.472657-.015625-.636719-.1875l-4.375-4.527344-.667969.59375c-.25.21875-.625.21875-.875 0l-.664062-.59375-4.378907 4.527344c-.160156.171875-.40625.246094-.636719.1875-.230468-.054688-.414062-.230469-.476562-.460938-.0625-.230468 0-.472656.167969-.640625l4.335937-4.488281-4.300781-3.824219c-.179687-.15625-.261719-.394531-.214844-.628906s.214844-.421875.441407-.496094c.226562-.074219.472656-.019531.648437.140625l5.515625 4.902344 5.515625-4.902344c.128906-.117187.292969-.179687.464844-.171875zm0 0" fill="#424242" fill-opacity=".392157"/></svg>

<?xml version="1.0" encoding="UTF-8"?>
<svg xmlns="http://www.w3.org/2000/svg" xmlns:xlink="http://www.w3.org/1999/xlink" width="16px" height="16px" viewBox="0 0 16 16" version="1.1">
<g id="surface1">
<path style=" stroke:none;fill-rule:nonzero;fill:rgb(25.882354%,25.882354%,25.882354%);fill-opacity:0.392157;" d="M 1.984375 2.109375 C 1.25 2.109375 0.660156 2.699219 0.660156 3.433594 L 0.660156 12.695312 C 0.660156 13.425781 1.25 14.015625 1.984375 14.015625 L 13.890625 14.015625 C 14.625 14.015625 15.214844 13.425781 15.214844 12.695312 L 15.214844 3.433594 C 15.214844 2.699219 14.625 2.109375 13.890625 2.109375 Z M 13.917969 2.769531 C 14.191406 2.777344 14.429688 2.949219 14.519531 3.207031 C 14.609375 3.460938 14.535156 3.746094 14.328125 3.925781 L 10.027344 7.75 L 14.367188 12.238281 C 14.53125 12.40625 14.597656 12.648438 14.53125 12.878906 C 14.46875 13.109375 14.285156 13.285156 14.054688 13.339844 C 13.824219 13.398438 13.582031 13.324219 13.417969 13.152344 L 9.042969 8.625 L 8.375 9.21875 C 8.125 9.4375 7.75 9.4375 7.5 9.21875 L 6.835938 8.625 L 2.457031 13.152344 C 2.296875 13.324219 2.050781 13.398438 1.820312 13.339844 C 1.589844 13.285156 1.40625 13.109375 1.34375 12.878906 C 1.28125 12.648438 1.34375 12.40625 1.511719 12.238281 L 5.847656 7.75 L 1.546875 3.925781 C 1.367188 3.769531 1.285156 3.53125 1.332031 3.296875 C 1.378906 3.0625 1.546875 2.875 1.773438 2.800781 C 2 2.726562 2.246094 2.78125 2.421875 2.941406 L 7.9375 7.84375 L 13.453125 2.941406 C 13.582031 2.824219 13.746094 2.761719 13.917969 2.769531 Z M 13.917969 2.769531 "/>
</g>
</svg>
